X:1
T:Menuett Beethoven
T:Menuett Beethoven
T:Beethoven
C:Beethoven
%%score { 1 | 2 }
L:1/8
M:3/4
K:F
V:1 treble nm="Piano" snm="Pno."
V:2 bass 
V:1
 F>A | c2 c2 c2 | A2 F2 a2 | g2 e2 d2 | c2 z2 c>e | g2 g2 g2 | e2 c2 d'2 | c'2 a2 g2 | f2 z2 F>A | %9
 c2 c2 c2 | A2 F2 a2 | g2 e2 d2 | c2 z2 c>e | g2 g2 g2 | e2 c2 d'2 | c'2 a2 g2 |[M:2/4] f2 z2 |: %17
[M:4/4] [FA]2 [EG]4 [FA][EG] |[M:3/4] [EG]4 [Bd]2 | [Ac]4 [Bd][Ac] | [Ac]4 z2 | z4 F>A | c2 c2 c2 | %23
 c2 B2 A2 | G2 B2 E2 |[M:2/4] F2 z2!fine! :: f'/e'/d'/c'/ b/a/g/f/ | e/d/c/B/ A/G/F/E/ | %28
[M:3/4] D2 E2 F2 | G2 B2 A2 | G2 z2 f'/e'/d'/c'/ | b/a/g/f/ e/d/c/B/ A/G/F/E/ | D2 E2 F2 | %33
 G2 A2 =B2 |[M:2/4] c2 z2 :: e'/d'/c'/=b/ a/g/f/e/ | d/c/=B/A/ G/F/E/D/ |[M:3/4] z6 | %38
 z2 z/ C/D/E/ F/G/A/=B/ |[M:2/4] c2 z2!D.C.! :| %40
V:2
 F,>A, | C2 C2 C2 | A,2 F,2 D,2 | E,2 G,2 G,,2 | C,2 C,,2[K:treble] C>E | G2 G2 G2 | %6
 E2 C2[K:bass] E,2 | F,2 C2 C,2 | F,2 F,,2 z2 | C,2 D,2 E,2 | F,2 F,,2 F,2 | E,F, G,2 G,,2 | %12
 C,2 C,,2 z2 | C,2 E,2 G,2 | C4 B,2 | A,B, C2 C,2 |[M:2/4] F,2 F,,2 |:[M:4/4] z4 C2 =B,2 | %18
[M:3/4] C2 C,2 z2 | z2 F2 E2 | F2 F,2 F,>A, | C2 C2 C2 | _E6 | D3 =E FA, | B,2 G,2 C2 | %25
[M:2/4] F,2 z2 :: z4 | z4 |[M:3/4] z6 | z2 E,2 F,2 | C2 C,2 z2 | z6 | z6 | z4 G,2 | %34
[M:2/4] C2 C,2 :: z2 z2 | z/ C,/D,/E,/ F,/G,/A,/=B,/ |[M:3/4] C2 C,2 E/D/C/=B,/ | %38
 A,/G,/F,/E,/ =D,/C,/B,,/A,,/ G,,/F,,/E,,/D,,/ |[M:2/4] C,,2 C,2 :| %40

